public/images/logos/radio/active/bbc_1xtra.svg

<svg xmlns="http://www.w3.org/2000/svg" viewBox="0 0 114.16 114.219" enable-background="new 0 0 114.16 114.219">
    <circle fill="#fff" cx="58.375" cy="56.361" r="55.334"/>
    <path d="M107.795 30.907c4.06 7.85 6.365 16.754 6.365 26.2 0 .41-.02.813-.03 1.22l-12.147-18.59 5.812-8.83zm-12.95 19.746L87.404 62.05h-14.34S86.13 42.13 87.706 39.733L73.86 18.693H88.14l6.703 10.19c1.633-2.482 4.314-6.56 5.738-8.728C90.115 7.83 74.518 0 57.083 0 25.556 0 0 25.57 0 57.108c0 31.544 25.557 57.11 57.082 57.11 29.86 0 54.348-22.94 56.854-52.168H102.29l-7.444-11.397zm-27.26 44.745H47.48v-54.64h-8.598l11.866-22.02h16.834v76.66z"/>
</svg>

<?xml version="1.0" encoding="utf-8"?>
<!-- Generator: Adobe Illustrator 15.1.0, SVG Export Plug-In . SVG Version: 6.00 Build 0)  -->
<!DOCTYPE svg PUBLIC "-//W3C//DTD SVG 1.1//EN" "http://www.w3.org/Graphics/SVG/1.1/DTD/svg11.dtd">
<svg version="1.1" id="Layer_1" xmlns="http://www.w3.org/2000/svg" xmlns:xlink="http://www.w3.org/1999/xlink" x="0px" y="0px"
	  viewBox="0 0 114.16 114.219" enable-background="new 0 0 114.16 114.219"
	 xml:space="preserve">
<g>
	<circle fill="#FFFFFF" cx="58.375" cy="56.361" r="55.334"/>
	<path d="M107.795,30.907c4.059,7.85,6.365,16.754,6.365,26.201c0,0.41-0.021,0.812-0.031,1.22
		c-3.842-5.883-11.008-16.852-12.146-18.592C102.627,38.757,105.107,34.989,107.795,30.907z M94.846,50.653
		c-2.445,3.742-7.443,11.397-7.443,11.397H73.064c0,0,13.066-19.919,14.641-22.317c-1.562-2.372-13.846-21.04-13.846-21.04h14.283
		c0,0,4.4,6.689,6.703,10.191c1.633-2.483,4.314-6.562,5.738-8.729C90.115,7.83,74.518,0,57.082,0C25.557,0,0,25.57,0,57.108
		c0,31.544,25.557,57.11,57.082,57.11c29.861,0,54.348-22.939,56.854-52.168h-11.646C102.289,62.051,97.289,54.396,94.846,50.653z
		 M67.584,95.398H47.482V40.757h-8.598L50.75,18.738h16.834V95.398z"/>
</g>
</svg>
